shader_type canvas_item;
render_mode unshaded;

uniform vec4 edge_color : source_color = vec4(1.0);
uniform float speed : hint_range(0.0, 1.0) = 0.5;
uniform float size : hint_range(0.0, 1.0) = 0.5;

void fragment()
{
	
}
