shader_type canvas_item;

uniform float cutoff:hint_range(0.0, 1.0);
uniform float width:hint_range(0.0, 10.0);
uniform float height:hint_range(0.0, 10.0);
uniform float speed:hint_range(0.0, 1.0);

void fragment() {
	// Place fragment code here.
}
